X:254
T:Mulvihills (Bm)
M:6/8
L:1/8
R:Jig
K:BMin
Bc||"Bm"dcB "A"cBA| "Bm"BAF F3|"Bm"def ecA|"G"cBA "A"B2c|
"Bm"d2d "A"cBA |"Bm"BdB AFE|"Bm"DFE F2E|"F#m"FBA B2c||
"Bm"dcB "A"cBA|"Bm"BAF FBc|"Bm"dcB "A"ecA|"G"cBA "A"B2c|
"Bm"d2d "A"cBA |"Bm"BdB AFE|DFE F2E|"F#m"FBB "G"B2c||:
"D"dcd ede|fdB "G"AFA|"D"d2 d efe|"G"dBc "A"d2 e|"Bm"fdf "A"ece|
"Bm"dcB "A"cBA|"Bm"BAF F2E|"F#m"FBA B2 c:||
